X:1
T:Grace Greater Than Our Sin
T:Grace Greater Than Our Sin
T:Daniel Brink Towner
T:Julia Harriet Johnston, 1911
T:Public Domain Courtesy of the Cyber Hymnal™
C:Daniel Brink Towner
Z:Public Domain
Z:Courtesy of the Cyber Hymnal™
%%score 1 ( 2 3 )
L:1/8
M:3/4
K:G
V:1 treble 
V:2 bass 
V:3 bass 
V:1
 [DG]3 [DF] [DG]2 | [FA]2 [EG]2 [DA]2 | [DB]4 [DA]2 | [DG]6 | [DF]2 [DF]2 [DG]2 | [FA]4 [DF]2 | %6
w: 1.~Mar- ve- lous|grace of our|lov- ing|Lord,|Grace that ex-|ceeds our|
w: 2.~Sin and des-|pair, like the|sea waves|cold,|Threat- en the|soul with|
w: 3.~Dark is the|stain that we|can- not|hide.|What can a-|vail to|
w: 4.~Mar- ve- lous,|in- fin- ite,|match- less|grace,|Free- ly be-|stowed on|
 [DG]2 [DG]2 [DA]2 | [GB]6 | [DG]3 [DF] [DG]2 | [FA]2 [EG]2 [DA]2 | [DB]4 [FA]2 | [EG]6 | %12
w: sin and our|guilt!|Yon- der on|Cal- va- ry’s|mount out-|poured,|
w: in- fin- ite|loss;|Grace that is|great- er, yes,|grace un-|told,|
w: wash it a-|way?|Look! There is|flow- ing a|crim- son|tide,|
w: all who be-|lieve!|You that are|long- ing to|see His|face,|
 [EA]3 [EA] [^GB]2 | [Ac]2 [^GB]2 [EA]2 | [DG]4 [DF]2 | [DG]6 ||"^Refrain" [GB]6 | [DG]6 | [Gc]6 | %19
w: There where the|blood of the|Lamb was|spilled.||||
w: Points to the|ref- uge, the|might- y|cross.||||
w: Bright- er than|snow you may|be to-|day.||||
w: Will you this|mo- ment His|grace re-|ceive?||||
 [GB]6 | [FA]3 [FA] [FA]2 | [FA]2 [FB]2 [DA]2 | [DG]4 [Gc]2 | [GB]6 | [GB]6 | [DG]6 | [Gc]6 | %27
w: ||||||||
w: ||||||||
w: ||||||||
w: ||||||||
 [GB]6 | [EA]3 [EA] [^GB]2 | [Ac]2 [^GB]2 [EA]2 | [DG]4 [DF]2 | [DG]6 |] %32
w: |||||
w: |||||
w: |||||
w: |||||
V:2
 [G,B,]3 [G,A,] [G,B,]2 | [D,C]2 [E,B,]2 [F,A,]2 | G,4 [D,C]2 | [G,B,]6 | [D,A,]2 [D,A,]2 [D,B,]2 | %5
w: ~ ~ ~|~ ~ ~|~ ~|~|~ ~ ~|
 [D,C]4 [D,A,]2 | [G,B,]2 [G,B,]2 [G,C]2 | [G,D]6 | [G,B,]3 [G,A,] [G,B,]2 | %9
w: ~ ~|~ ~ ~|~|~ ~ ~|
 [D,C]2 [E,B,]2 [F,A,]2 | G,4 [D,C]2 | [E,B,]6 | [C,C]3 [C,C] [B,,D]2 | [A,,E]2 [B,,D]2 [C,C]2 | %14
w: ~ ~ ~|~ ~|~|~ ~ ~|~ ~ ~|
 [D,B,]4 [D,A,]2 | [G,B,]6 || [G,D]6 | [G,B,]6 | [G,E]6 | [G,D]6 | [D,C]3 [D,C] [D,C]2 | %21
w: ~ ~|~|Grace,|grace,|God’s|grace,|Grace that will|
 [D,C]2 [D,D]2 [D,C]2 | [G,B,]4 [G,E]2 | [G,D]6 | [G,D]6 | [G,B,]6 | [G,E]6 | [G,D]6 | %28
w: par- don and|cleanse with-|in;|Grace,|grace,|God’s|grace,|
 [C,C]3 [C,C] [B,,D]2 | [A,,E]2 [B,,D]2 [C,C]2 | [D,B,]4 [D,A,]2 | [G,B,]6 |] %32
w: Grace that is|great- er than|all our|sin!|
V:3
 x6 | x6 | G,4 x2 | x6 | x6 | x6 | x6 | x6 | x6 | x6 | G,4 x2 | x6 | x6 | x6 | x6 | x6 || x6 | x6 | %18
 x6 | x6 | x6 | x6 | x6 | x6 | x6 | x6 | x6 | x6 | x6 | x6 | x6 | x6 |] %32

